src/icons/SVG/48px/Payment_Cards_Monochrome_OneyX3_48px.svg

<svg width="48" height="48" viewBox="0 0 48 48" fill="none" xmlns="http://www.w3.org/2000/svg">
<g id="Square"> </g>
<g id="Icon">
<path id="Subtract" fill-rule="evenodd" clip-rule="evenodd" d="M38.8125 24C38.8125 32.1807 32.1807 38.8125 24 38.8125C15.8193 38.8125 9.1875 32.1807 9.1875 24C9.1875 15.8193 15.8193 9.1875 24 9.1875C32.1807 9.1875 38.8125 15.8193 38.8125 24ZM19.4433 28.8843C18.3933 28.8843 17.5283 28.6474 16.8483 28.1737C16.1774 27.7165 15.6924 27.034 15.4814 26.2499L17.6283 25.6199C17.7472 25.985 17.9857 26.2995 18.3052 26.5124C18.6529 26.7359 19.0603 26.8483 19.4733 26.8349C19.8425 26.8447 20.2037 26.7261 20.4952 26.4993C20.778 26.2727 20.9344 25.9237 20.9152 25.5618C20.933 25.197 20.7633 24.8484 20.4652 24.6374C20.1244 24.4111 19.7208 24.2982 19.3121 24.3149H18.1252V22.4549H19.2614C19.6429 22.4801 20.0221 22.38 20.3414 22.1699C20.5914 21.9787 20.7164 21.6662 20.7164 21.2324C20.729 20.9152 20.5897 20.6109 20.3414 20.413C20.0845 20.2089 19.7638 20.102 19.4358 20.1112C18.7171 20.1112 18.2364 20.4862 17.9939 21.2362L15.7589 20.6062C15.8433 20.2726 15.9834 19.9556 16.1733 19.6687C16.3773 19.3646 16.6256 19.0928 16.9102 18.8624C17.2396 18.6014 17.6157 18.4054 18.0183 18.2849C18.4868 18.1391 18.9752 18.0676 19.4658 18.073C20.5496 18.073 21.4283 18.3293 22.1021 18.8418C22.7624 19.3249 23.1408 20.1035 23.1127 20.9212C23.1298 21.4102 23.0041 21.8937 22.7508 22.3124C22.5088 22.6885 22.1497 22.9745 21.7289 23.1262V23.1412C22.1895 23.3003 22.5849 23.6067 22.8539 24.013C23.1687 24.4816 23.3287 25.037 23.3114 25.6012C23.3398 26.5163 22.9449 27.3934 22.2408 27.9787C21.5321 28.5824 20.5996 28.8843 19.4433 28.8843ZM32.4692 20.625L29.6567 24.5437L32.4242 28.6875H29.6774L28.2505 26.5406L26.938 28.6875H24.313L26.9924 24.6806L24.3242 20.625H27.0711L28.4624 22.7269L29.8536 20.625H32.4692Z" fill="black"/>
</g>
</svg>

<svg xmlns="http://www.w3.org/2000/svg" viewBox="0 0 48 48">
  <g id="Square"> </g>
  <path fill-rule="evenodd" d="M38.813 24c0 8.18-6.632 14.813-14.813 14.813-8.18 0-14.813-6.632-14.813-14.813C9.188 15.82 15.82 9.187 24 9.187c8.18 0 14.813 6.632 14.813 14.813zm-19.37 4.884c-1.05 0-1.915-.237-2.595-.71a3.396 3.396 0 01-1.367-1.924l2.147-.63c.12.365.358.68.677.892.348.224.755.336 1.168.323.37.01.73-.109 1.022-.336.283-.226.44-.575.42-.937a1.069 1.069 0 00-.45-.925 1.941 1.941 0 00-1.153-.322h-1.187v-1.86h1.136c.382.025.761-.075 1.08-.285.25-.191.375-.504.375-.938a.997.997 0 00-.375-.819 1.393 1.393 0 00-.905-.302c-.719 0-1.2.375-1.442 1.125l-2.235-.63c.084-.333.224-.65.414-.937.204-.304.453-.576.737-.807.33-.26.706-.457 1.108-.577a4.697 4.697 0 011.448-.212c1.084 0 1.962.256 2.636.769a2.471 2.471 0 011.01 2.08c.018.488-.108.972-.361 1.39a2.036 2.036 0 01-1.022.814v.015c.46.16.856.466 1.125.872a2.7 2.7 0 01.457 1.588 2.972 2.972 0 01-1.07 2.378c-.709.603-1.641.905-2.798.905zm13.026-8.259l-2.812 3.919 2.767 4.143h-2.747l-1.427-2.146-1.312 2.146h-2.625l2.68-4.006-2.669-4.056h2.747l1.391 2.102 1.392-2.102h2.615z"/>
</svg>
